X: 24
T: Cantiga 24: Madre de Deus, non pod' errar
N: 18 in To
B:Cantigas de Santa Maria
F:http://www.pbm.com/~lindahl/cantigas/facsimiles/E/093small.html
F:http://www.pbm.com/~lindahl/cantigas/facsimiles/To/bob017small.gif
Z:Ali Corbin <ali.corbin:gmail.com>
M: 3/4
L: 1/4
Q: 1/4=200
K: F Ionian
V:1
%Staff 1
%%MIDI program 74
%
   A  (BA)| G  F2 |(F/G/A2)|(E/D/) (CE)|G3 |  A (BA)|G F2 |(G/F/) (E/D/E)|F3 ||
w:Ma- dre* de Deus, non**    pod'*  er-*rar quen en* ti á   fi-*   an-**  ça.
%
   F   A2| B  c2|(d/c/) (BA)|(A/B/c2)|(AG2)|  F  A2|B  c2|(d/c/) (BA)|(A/B/c2)|(AG2)|
w:Non pod' er-rar nen*   fa-* le-**    cer* quen lo-ar te  sab'*  e*   te-**    mer.*
    A  (BA)| G F2|(F/G/A2)|(E/C/) (DE)|G3| A (BA) | G   F2|(G/F/) (E/D/E) | F3 ||
w:Dest' un* mi-ra- gre**    re-*  tra-*er que-ro,* que foi  en*    Fran-**  ça.
%
W:Esta é como Santa Maria fez nacer huma fror na boca ao crerigo, 
W:depois que foi morto, e era en semellança de lilio, porque a loava.
W:
W:
W:Madre de Deus, non pod' errar | quen en ti á fiança.
W:
W:     Non pod' errar nen falecer
W: quen loar te sab' e temer.
W: Dest' un miragre retraer
W:     quero, que foi en França.
W:
W:Madre de Deus, non pod' errar | quen en ti á fiança.
W:
W: En Chartes ouv' un crerizon,
W: que era tafur e ladron,
W: mas na Virgen de coraçon
W:     avia esperança.
W:
W:Madre de Deus, non pod' errar | quen en ti á fiança.
W:
W: Quand' algur ya mal fazer,
W: se via omagen seer
W: de Santa Maria, correr
W:     ya là sen tardança.
W:
W:Madre de Deus, non pod' errar | quen en ti á fiança.
W:
W: E pois fazia oraçon,
W: ya comprir seu mal enton;
W: poren morreu sen confisson,
W:     per sua malandança.
W:
W:Madre de Deus, non pod' errar | quen en ti á fiança.
W:
W: Porque tal morte foi morrer,
W: non o quiseron receber
W: no sagrad', e ouv' a jazer
W:     fora, sen demorança.
W:
W:Madre de Deus, non pod' errar | quen en ti á fiança.
W:
W: Santa Maria en vison
W: se mostrou a pouca sazon
W: a un prest', e disse-ll' enton:
W:     «Fezestes malestança,
W:
W:Madre de Deus, non pod' errar | quen en ti á fiança.
W:
W: Porque non quisestes coller
W: o meu crerigo, nen meter
W: no sagrad', e longe põer
W:     o fostes por viltança.
W:
W:Madre de Deus, non pod' errar | quen en ti á fiança.
W:
W: Mas cras, asse Deus vos perdon,
W: ide por el con procisson,
W: con choros e con devoçon,
W:     ca foi grand' a errança.»
W:
W:Madre de Deus, non pod' errar | quen en ti á fiança.
W:
W: O preste logo foi-ss' erger
W: e mandou os sinos tanger,
W: por ir o miragre veer
W:     da Virgen sen dultança.
W:
W:Madre de Deus, non pod' errar | quen en ti á fiança.
W:
W: Os crerigos en mui bon son
W: cantando «kyrieleyson»,
W: viron jazer aquel baron,
W:     u fez Deus demostrança.
W:
W:Madre de Deus, non pod' errar | quen en ti á fiança.
W:
W: Que, porque fora ben dizer
W: de ssa Madre, fez-lle nacer
W: fror na boca e parecer
W:     de liro semellança.
W:Madre de Deus, non pod' errar | quen en ti á fiança.
W:
W: Esto teveron por gran don
W: da Virgen, e mui con razon;
W: e pois fezeron en sermon,
W:     leváron o con dança.
W:
W:Madre de Deus, non pod' errar | quen en ti á fiança.


%%landscape 0
